!!!COM: Felix Mendelssohn
!!!CNT: Deutsch
!!!TXO: Deutsch
!!!OTL: Da lieg' ich unter den Ba2umen
!!!LYR: Anonymous
!!!OPS: Op. 84
!!!ONM: No. 1
!!!ENC: Daniel Alt & Leigh VanHandel
!!!YOR: Sa2mmtliche Lieder fu2r eine Singstimme 
!!!YOR: Neu revidirt von Dr. L. Benda, Ausgabe fu2r mittlere Stimme
!!!YOR: Braunschweig. Henry Litolff's Verlag. Boston and New York: Arthur P. Schmidt.
!!!ODT: 1831/
**kern	**silbe
*staff1	*
=1-	=1
*clefG2	*
*k[f#c#g#d#]	*
*met(C)	*
*M4/4	*
1r	.
=2	=2
1r	.
=3	=3
4r	.
8r	.
{8a	{Da
8g#	lieg'
8g#	ich
8a	un-
16g#	-ter
16a	den
=4	=4
4g#	Ba2u-
8f#}	-men,}
8r	.
{8f#	{tru2b'
16g#	ist
16a	mein
8cc#	Herz
16b	mir
16g#	und
=5	=5
4f#}	schwer,}
8r	.
{8f#	{o
8g#	sa-
8g#	-ge,
8a#	sag'
16a#	mir
16a#	ge-
=6	=6
4b	-treu-
8.cc#	-lich,
16b	mein
8b	Herz,
8a#	was
8g#	dru2ckt
16f#	dich
16f#	so
=7	=7
4f#}	sehr,}
8r	.
{8b	{was
8b	dru2ckt
8a#	|
8g#	dich
8f#	so
=8	=8
4f#	sehr,
2b}	sag;}
{[4cc#	{sag',
=9	=9
8cc#]	|
8b	mein
8a#	Herz,
8g#	was
4g#	dru2ckt
8c#	dich
8f#	so
=10	=10
*k[f#]	*
4d#}	sehr?}
8r	.
{8B	{Der
8c	Him-
16c	-mel
16c	ist
8c	du2-
16B	-ster
16c	um-
=11	=11
8d#	-zo-
8d#}	-gen,}
8r	.
{8d#	{die
8e	Win-
16e	-de
16e	so
8e	schau-
16d#	|
16e	-rig
=12	=12
4f#}	weh'n,}
8r	.
{8b	{das
8a	bringt
8g	mir
8f#	du2-
16e	-stre
16e	Ge-
=13	=13
4d	-dan-
4c}	-ken,}
{8B	{drum
16e	muss
16f#	in
8g	Trau-
16f#	-er
16e	ich
=14	=14
2a}	geh'n,}
{8a	{drum
16f#	muss
16g	in
8a	Trau-
16g	-er
16f#	ich
=15	=15
4.b}	geh'n,}
{8b	{das
8a	bringt
8g	mir
8f#	du2-
16e	-stre
16e	Ge-
=16	=16
4d	-dan-
4c}	-ken,}
{8B	{drum
16e	muss
16f#	in
8g	Trau-
16e	-er,
16f#	in
=17	=17
4.g	Trau-
16f#	-er
16e	ich
4e}	geh'n.}
4r	.
=18	=18
*k[f#c#g#d#]	*
1r	.
=19	=19
4r	.
8r	.
{8a	{Du
8g#	schwin-
16g#	-den
16g#	die
8a	Ta-
16g#	-ge
16a	der
=20	=20
4g#	Won-
8.f#}	-ne,}
{16f#	{lass
8f#	fal-
16g#	-ten
16a	die
8cc#	Bla2t-
16b	-ter
16a	her-
=21	=21
4f#}	-ab!}
8r	.
{8f#	{sie
8g#	keh-
16g#	-ren
16g#	ja
8a#	al-
16a#	-le
16a#	dir
=22	=22
4b	wie-
8.cc#}	-der}
{16b	{ver
8b	ju2ngt
8a#	aus
8g#	dun-
16f#	-ke-
16f#	-lem
=23	=23
4f#}	Grab,}
8r	.
{8b	{aus
8b	dun-
8a#	|
8g#	-ke-
8f#	-lem
=24	=24
4f#	Grab,
2b}	|}
{[4cc#	{ja
=25	=25
8cc#]	|
8b	ver
8a#	ju2ngt
8g#	aus
4g#	dun-
8c#	-ke-
8f#	-lem
=26	=26
*k[f#]	*
4d#}	Grab.}
4r	.
4r	.
8r	.
{8b	{Wohl
=27	=27
8dd	kla2rt
16cc	sich
16b	der
8a	Him-
16g#	-mel,
16a	die
8dd	Son-
16cc	-ne
16b	er-
8a	-steht,
16g#	es
16a	ver-
=28	=28
8dd	-ju2ngt
16cc	sich
16b	der
8a}	Hain,}
8r	.
4r	.
8r	.
{8b	{mein
=29	=29
8a	Hof-
8g	-fen
8f#	schwand
16e	und
16e	er-
4d	-steht
8.c	nicht,
16c	das
=30	=30
8B	mag
16e	mei-
16f#	-ne
8g	Trau-
16f#	-er
16e	wohl
4.a}	sein,}
16r	.
{16a	{das
=31	=31
8a	mag
16f#	mei-
16g	-ne
8a	Trau-
16g	-er
16f#	wohl
4.b}	sein,}
{8b	{mein
=32	=32
8a	Hof-
8g	-fen
8f#	schwand
16e	und
16e	er-
4dd	-steht
4cc}	nicht,}
=33	=33
8r	.
{8b	{das
8b	mag
16e	mei-
16f#	-ne
4.g	Trau-
16f#	-er
16e	wohl
=34	=34
1e}	sein.}
==	==
*-	*-